roman-numeral-6.svg

<svg fill="currentColor" viewBox="0 0 24 24"><path d="m6 7 2 10h2l2-10h-2l-1 5-1-5zm11 0v2h-1v6h1v2h-4v-2h1V9h-1V7z"/></svg>

<svg  viewBox="0 0 24 24" fill="currentColor"><path  d="M6 7L8 17H10L12 7H10L9 12L8 7H6M17 7V9H16V15H17V17H13V15H14V9H13V7H17Z"/></svg>
